X: 35000
T: Rohan
R: jig
M: 6/8
K: Amajor
AEc BEB|Bcc Ace|cdd ecA|E2d dcB|
AEc BEB|Bcc Ace|dcd ecB|1 AGB AGB:|2 AGB Afg||
a2f ecA|ded cBA|ded cBA|EFG Bcd|
Bcc dfd|efg aec|Bfe dca|1 caB Afg:|2 caB AGB||

